webapp/src/main/webapp/src/assets/svgs/assessment-icons/Math_HS_Equations-Reasoning.svg

<?xml version="1.0" encoding="utf-8"?>
<!-- Generator: Adobe Illustrator 24.0.0, SVG Export Plug-In . SVG Version: 6.00 Build 0)  -->
<svg version="1.1" id="Layer_1" xmlns="http://www.w3.org/2000/svg" xmlns:xlink="http://www.w3.org/1999/xlink" x="0px" y="0px"
	 viewBox="0 0 100 100" style="enable-background:new 0 0 100 100;" xml:space="preserve">
<style type="text/css">
	.st0{fill:none;}
	.st1{fill:#FFFFFF;}
	.st2{fill:#FFFFFF;stroke:#FFFFFF;stroke-width:0.25;stroke-miterlimit:10;}
	.st3{fill:none;stroke:#000000;stroke-width:0.25;stroke-linecap:round;stroke-miterlimit:10;}
	.st4{fill:#D9D9D9;}
	.st5{fill:none;stroke:#000000;stroke-width:2;stroke-linejoin:round;stroke-miterlimit:10;}
	.st6{fill:none;stroke:#000000;stroke-width:0.4396;stroke-miterlimit:10;}
	.st7{fill:none;stroke:#000000;stroke-linecap:round;stroke-linejoin:round;}
	.st8{fill:none;stroke:#000000;stroke-linecap:round;stroke-linejoin:round;stroke-miterlimit:10;}
</style>
<path d="M17.38,6.58c0.93,0.78,1.39,1.81,1.39,3.11c0,0.84-0.21,1.61-0.63,2.3s-1.06,1.24-1.92,1.66c-0.86,0.41-1.92,0.62-3.18,0.62
	c-0.97,0-1.93-0.13-2.87-0.38c-0.94-0.26-1.74-0.62-2.39-1.09l1.26-2.44c0.53,0.39,1.13,0.7,1.81,0.92
	c0.68,0.22,1.39,0.33,2.11,0.33c0.8,0,1.43-0.16,1.89-0.47c0.46-0.32,0.69-0.76,0.69-1.32c0-0.59-0.24-1.04-0.72-1.34
	C14.33,8.15,13.5,8,12.32,8H8.79L9.5,0.24h8.41V2.8h-5.75l-0.22,2.62h1.12C15.01,5.42,16.45,5.81,17.38,6.58z M22.92,13.42
	c-0.89-0.56-1.59-1.38-2.1-2.45c-0.51-1.07-0.76-2.35-0.76-3.83c0-1.48,0.25-2.76,0.76-3.83c0.51-1.07,1.21-1.89,2.1-2.45
	C23.82,0.28,24.83,0,25.98,0c1.14,0,2.16,0.28,3.05,0.85c0.89,0.56,1.59,1.38,2.1,2.45c0.51,1.07,0.76,2.35,0.76,3.83
	c0,1.49-0.25,2.76-0.76,3.83c-0.51,1.07-1.21,1.89-2.1,2.45c-0.89,0.57-1.91,0.85-3.05,0.85C24.83,14.27,23.82,13.99,22.92,13.42z
	 M27.96,10.49c0.48-0.72,0.72-1.84,0.72-3.35c0-1.51-0.24-2.63-0.72-3.35c-0.48-0.72-1.14-1.08-1.98-1.08
	c-0.83,0-1.48,0.36-1.96,1.08c-0.48,0.72-0.72,1.84-0.72,3.35c0,1.51,0.24,2.63,0.72,3.35c0.48,0.72,1.14,1.08,1.96,1.08
	C26.82,11.57,27.48,11.21,27.96,10.49z M49.1,12.37h12.97v3.32H49.1V12.37z M49.1,19.13h12.97v3.32H49.1V19.13z M12.39,32.97v2.6
	H1.96v-2.07l5.32-5.02c0.56-0.54,0.94-1,1.14-1.39c0.2-0.39,0.3-0.77,0.3-1.15c0-0.55-0.19-0.98-0.56-1.27
	c-0.37-0.3-0.92-0.44-1.65-0.44c-0.6,0-1.15,0.12-1.64,0.34c-0.49,0.23-0.89,0.57-1.22,1.04l-2.33-1.5c0.54-0.8,1.28-1.43,2.23-1.88
	c0.95-0.45,2.03-0.68,3.25-0.68c1.02,0,1.92,0.17,2.69,0.5c0.77,0.33,1.37,0.81,1.79,1.42c0.43,0.61,0.64,1.33,0.64,2.16
	c0,0.75-0.16,1.45-0.47,2.11c-0.32,0.66-0.93,1.41-1.83,2.25l-3.17,3H12.39z M16.53,34.96c-0.89-0.56-1.59-1.38-2.1-2.45
	c-0.51-1.07-0.76-2.35-0.76-3.83s0.25-2.76,0.76-3.83c0.51-1.07,1.21-1.89,2.1-2.45c0.89-0.56,1.91-0.85,3.05-0.85
	c1.14,0,2.16,0.28,3.06,0.85c0.89,0.56,1.59,1.38,2.1,2.45s0.76,2.35,0.76,3.83s-0.25,2.76-0.76,3.83s-1.21,1.89-2.1,2.45
	c-0.89,0.56-1.91,0.85-3.06,0.85C18.44,35.81,17.42,35.53,16.53,34.96z M21.56,32.03c0.48-0.72,0.72-1.84,0.72-3.35
	s-0.24-2.63-0.72-3.35c-0.48-0.72-1.14-1.08-1.98-1.08c-0.83,0-1.48,0.36-1.96,1.08c-0.48,0.72-0.72,1.84-0.72,3.35
	s0.24,2.63,0.72,3.35c0.48,0.72,1.13,1.08,1.96,1.08C20.42,33.11,21.08,32.75,21.56,32.03z M33.83,30.27l2.96,5.3h-3.25l-1.73-3.25
	l-3.06,3.25h-3.51l5.3-5.44l-2.82-5.16h3.19l1.67,3.11l2.96-3.11h3.39L33.83,30.27z M40.19,17.26H0.06v1.12h40.12V17.26z
	 M87.52,0.24v13.8h-3.19V2.8h-2.76V0.24H87.52z M85.58,32.68h-2.25v2.9h-3.11v-2.9h-7.43v-2.15l6.5-8.75h3.35l-6.03,8.29h3.7V27.5
	h3.01v2.58h2.25V32.68z M93.31,30.27l2.96,5.3h-3.25l-1.73-3.25l-3.06,3.25h-3.51l5.3-5.44l-2.82-5.16h3.19l1.67,3.11l2.96-3.11
	h3.39L93.31,30.27z M99.93,17.67H70.67v1.12h29.26V17.67z M19.29,97.9v1.92h-7.71V98.3l3.93-3.71c0.42-0.4,0.7-0.74,0.84-1.03
	c0.15-0.29,0.22-0.57,0.22-0.85c0-0.41-0.14-0.72-0.41-0.94c-0.28-0.22-0.68-0.33-1.22-0.33c-0.45,0-0.85,0.09-1.21,0.25
	c-0.36,0.17-0.66,0.43-0.9,0.77l-1.72-1.11c0.4-0.59,0.95-1.06,1.65-1.39c0.7-0.33,1.5-0.5,2.4-0.5c0.76,0,1.42,0.12,1.99,0.37
	c0.57,0.25,1.01,0.6,1.33,1.05s0.47,0.98,0.47,1.6c0,0.55-0.12,1.07-0.35,1.56c-0.23,0.48-0.68,1.04-1.35,1.66L14.9,97.9H19.29z
	 M26.01,95.91l2.18,3.92h-2.4l-1.28-2.4l-2.26,2.4h-2.59l3.92-4.02l-2.08-3.82h2.36l1.24,2.3l2.19-2.3h2.51L26.01,95.91z
	 M39.84,95.62H37.3v2.48h-1.88v-2.48H32.9v-1.78h2.52v-2.48h1.88v2.48h2.53V95.62z M51.02,94.78c0.48,0.52,0.71,1.16,0.71,1.93
	c0,0.59-0.16,1.14-0.47,1.64c-0.31,0.5-0.78,0.9-1.42,1.2c-0.64,0.3-1.42,0.45-2.34,0.45c-0.72,0-1.42-0.09-2.12-0.28
	s-1.28-0.46-1.77-0.81l0.92-1.81c0.39,0.29,0.84,0.52,1.35,0.68c0.51,0.16,1.03,0.24,1.56,0.24c0.59,0,1.06-0.11,1.4-0.34
	c0.34-0.23,0.51-0.55,0.51-0.97c0-0.84-0.64-1.25-1.91-1.25h-1.08V93.9l2.1-2.37h-4.34v-1.89h7.14v1.53l-2.3,2.62
	C49.86,93.93,50.54,94.26,51.02,94.78z M63,95.62h-2.53v2.48h-1.88v-2.48h-2.52v-1.78h2.52v-2.48h1.88v2.48H63V95.62z M74.05,93.83
	c0.53,0.26,0.96,0.63,1.27,1.11c0.31,0.48,0.47,1.04,0.47,1.67c0,0.68-0.17,1.28-0.51,1.79c-0.34,0.51-0.8,0.91-1.39,1.19
	c-0.59,0.28-1.24,0.41-1.96,0.41c-1.43,0-2.54-0.44-3.35-1.31c-0.81-0.87-1.21-2.12-1.21-3.74c0-1.16,0.22-2.15,0.66-2.97
	c0.44-0.83,1.05-1.45,1.83-1.88c0.78-0.43,1.69-0.64,2.72-0.64c0.54,0,1.07,0.06,1.57,0.18c0.5,0.12,0.92,0.29,1.27,0.52l-0.87,1.73
	c-0.5-0.34-1.14-0.51-1.91-0.51c-0.86,0-1.55,0.25-2.05,0.76c-0.5,0.5-0.78,1.24-0.82,2.2c0.6-0.6,1.44-0.9,2.52-0.9
	C72.93,93.43,73.52,93.56,74.05,93.83z M73.03,97.83c0.32-0.27,0.47-0.64,0.47-1.11c0-0.47-0.16-0.84-0.47-1.11
	c-0.32-0.28-0.73-0.41-1.26-0.41c-0.51,0-0.94,0.14-1.27,0.43c-0.33,0.29-0.5,0.65-0.5,1.1c0,0.45,0.16,0.81,0.48,1.09
	c0.32,0.28,0.76,0.42,1.31,0.42C72.3,98.24,72.71,98.1,73.03,97.83z M79.89,92.03h6.93v1.78h-6.93V92.03z M79.89,95.65h6.93v1.78
	h-6.93V95.65z M93.3,99.37c-0.66-0.42-1.18-1.02-1.55-1.81c-0.37-0.79-0.56-1.74-0.56-2.83c0-1.1,0.19-2.04,0.56-2.83
	c0.37-0.79,0.89-1.4,1.55-1.81c0.66-0.42,1.41-0.63,2.26-0.63c0.84,0,1.6,0.21,2.26,0.63c0.66,0.42,1.18,1.02,1.55,1.81
	c0.37,0.79,0.56,1.74,0.56,2.83c0,1.1-0.19,2.04-0.56,2.83c-0.37,0.79-0.89,1.4-1.55,1.81c-0.66,0.42-1.41,0.63-2.26,0.63
	C94.71,100,93.96,99.79,93.3,99.37z M97.02,97.2c0.35-0.53,0.53-1.36,0.53-2.48c0-1.12-0.18-1.94-0.53-2.48
	c-0.36-0.53-0.84-0.8-1.46-0.8c-0.61,0-1.1,0.27-1.45,0.8c-0.35,0.53-0.53,1.36-0.53,2.48c0,1.12,0.18,1.94,0.53,2.48
	c0.35,0.53,0.84,0.8,1.45,0.8C96.18,98,96.67,97.74,97.02,97.2z M51.73,86.29h-40.5l0-0.01H9.12L5.6,97.07L3.64,91.1H0.06v1.76h1.91
	l2.45,7.05h2.34l3.87-11.8h41.1V86.29z M0,43.22v35.65h100V43.22H0z M10.4,66.79c-0.75,0.36-1.68,0.53-2.77,0.53
	c-0.85,0-1.69-0.11-2.51-0.34c-0.82-0.22-1.52-0.54-2.1-0.96l1.09-2.14c0.46,0.35,0.99,0.61,1.6,0.8c0.61,0.19,1.22,0.29,1.86,0.29
	c0.7,0,1.25-0.14,1.66-0.41c0.4-0.27,0.6-0.65,0.6-1.15c0-0.99-0.75-1.48-2.26-1.48H6.28v-1.85l2.49-2.81H3.62v-2.24h8.46v1.81
	l-2.73,3.11c1.06,0.17,1.87,0.57,2.43,1.18c0.56,0.62,0.85,1.38,0.85,2.29c0,0.7-0.18,1.35-0.55,1.94S11.15,66.43,10.4,66.79z
	 M22.45,67.11h-2.85l-1.52-2.85l-2.68,2.85h-3.07l4.64-4.76l-2.47-4.52h2.8l1.47,2.73l2.59-2.73h2.97l-4.47,4.64L22.45,67.11z
	 M37.69,64.27h-8.22v-2.11h8.22V64.27z M37.69,59.99h-8.22v-2.11h8.22V59.99z M55.37,64.58H53.4v2.54h-2.73v-2.54h-6.51V62.7
	l5.7-7.66h2.93l-5.28,7.27h3.24v-2.26h2.64v2.26h1.97V64.58z M69.69,62.13h-3v2.93h-2.23v-2.93h-2.99v-2.11h2.99v-2.93h2.23v2.93h3
	V62.13z M83.2,66.78c-0.75,0.36-1.68,0.54-2.79,0.54c-0.85,0-1.69-0.11-2.51-0.34c-0.82-0.22-1.52-0.54-2.1-0.96l1.1-2.14
	c0.46,0.35,0.99,0.61,1.59,0.8c0.6,0.19,1.21,0.29,1.85,0.29c0.7,0,1.25-0.14,1.66-0.41c0.4-0.28,0.6-0.66,0.6-1.16
	c0-0.52-0.21-0.91-0.63-1.17c-0.42-0.27-1.15-0.4-2.18-0.4H76.7l0.62-6.8h7.37v2.24h-5.04l-0.19,2.3h0.98c1.7,0,2.96,0.34,3.77,1.02
	c0.81,0.68,1.22,1.59,1.22,2.73c0,0.74-0.19,1.41-0.55,2.01C84.51,65.93,83.95,66.42,83.2,66.78z M95.1,67.11h-2.85l-1.52-2.85
	l-2.68,2.85h-3.07l4.64-4.76l-2.47-4.52h2.8l1.47,2.73l2.59-2.73h2.97l-4.47,4.64L95.1,67.11z"/>
</svg>

<svg id="Layer_1" data-name="Layer 1" xmlns="http://www.w3.org/2000/svg" viewBox="0 0 100 100"><defs><style>.cls-1{fill:#231f20;}</style></defs><title> </title><path class="cls-1" d="M17.38,6.58A3.88,3.88,0,0,1,18.76,9.7,4.31,4.31,0,0,1,18.13,12a4.45,4.45,0,0,1-1.92,1.66,7.36,7.36,0,0,1-3.18.62,10.74,10.74,0,0,1-2.87-.39,7.31,7.31,0,0,1-2.39-1.09L9,10.35a6,6,0,0,0,1.81.91,6.89,6.89,0,0,0,2.11.33,3.34,3.34,0,0,0,1.89-.47,1.52,1.52,0,0,0,.69-1.32,1.5,1.5,0,0,0-.72-1.35A5,5,0,0,0,12.32,8H8.79L9.5.24h8.42V2.8H12.16L12,5.42h1.12A6.68,6.68,0,0,1,17.38,6.58Zm5.54,6.84A5.7,5.7,0,0,1,20.82,11a9,9,0,0,1-.76-3.84,9,9,0,0,1,.76-3.83A5.7,5.7,0,0,1,22.92.85,5.92,5.92,0,0,1,29,.85a5.7,5.7,0,0,1,2.1,2.45,8.84,8.84,0,0,1,.76,3.83A8.86,8.86,0,0,1,31.13,11,5.7,5.7,0,0,1,29,13.42a5.92,5.92,0,0,1-6.11,0Zm5-2.93a6.19,6.19,0,0,0,.72-3.36A6.17,6.17,0,0,0,28,3.78a2.35,2.35,0,0,0-3.95,0,6.28,6.28,0,0,0-.71,3.35A6.29,6.29,0,0,0,24,10.49a2.35,2.35,0,0,0,3.95,0ZM49.1,12.37h13V15.7h-13Zm0,6.76h13v3.32h-13ZM12.39,33v2.6H2V33.51l5.32-5a5.64,5.64,0,0,0,1.15-1.39,2.61,2.61,0,0,0,.29-1.15,1.5,1.5,0,0,0-.56-1.27,2.56,2.56,0,0,0-1.64-.45,3.79,3.79,0,0,0-1.64.35,3.1,3.1,0,0,0-1.22,1L1.33,24.11a5.53,5.53,0,0,1,2.23-1.89,7.49,7.49,0,0,1,3.25-.68,6.59,6.59,0,0,1,2.69.51,4,4,0,0,1,1.79,1.42,3.64,3.64,0,0,1,.64,2.15,4.72,4.72,0,0,1-.47,2.11A7.89,7.89,0,0,1,9.63,30L6.46,33Zm4.14,2a5.58,5.58,0,0,1-2.1-2.45,8.84,8.84,0,0,1-.76-3.83,8.89,8.89,0,0,1,.76-3.84,5.63,5.63,0,0,1,10.3,0,8.89,8.89,0,0,1,.76,3.84,8.84,8.84,0,0,1-.76,3.83,5.47,5.47,0,0,1-5.15,3.3A5.54,5.54,0,0,1,16.53,35Zm5-2.93a6.17,6.17,0,0,0,.72-3.35,6.15,6.15,0,0,0-.72-3.35,2.33,2.33,0,0,0-3.94,0,6.15,6.15,0,0,0-.72,3.35A6.17,6.17,0,0,0,17.62,32a2.34,2.34,0,0,0,3.94,0Zm12.27-1.76,3,5.3H33.53L31.8,32.32l-3.06,3.25h-3.5l5.3-5.43L27.72,25h3.19l1.68,3.12L35.54,25h3.39Zm6.36-13H.06v1.12H40.19ZM87.52.24V14H84.33V2.8H81.57V.24ZM85.58,32.68H83.34v2.89H80.22V32.68H72.79V30.53l6.51-8.75h3.35l-6,8.3h3.7V27.5h3v2.58h2.24Zm7.73-2.41,3,5.3H93l-1.73-3.25-3.06,3.25H84.71L90,30.14,87.2,25h3.19l1.67,3.12L95,25h3.39Zm6.62-12.6H70.67v1.12H99.93ZM19.29,97.9v1.93H11.58V98.3l3.94-3.72a4.15,4.15,0,0,0,.84-1,1.8,1.8,0,0,0,.22-.85,1.12,1.12,0,0,0-.42-.94A2,2,0,0,0,15,91.44a2.79,2.79,0,0,0-1.21.25,2.3,2.3,0,0,0-.9.77l-1.72-1.11A4,4,0,0,1,12.76,90a5.44,5.44,0,0,1,2.41-.51,4.91,4.91,0,0,1,2,.38,3,3,0,0,1,1.32,1,2.72,2.72,0,0,1,.47,1.6A3.49,3.49,0,0,1,18.6,94a6,6,0,0,1-1.35,1.66L14.9,97.9Zm6.72-2,2.18,3.92h-2.4L24.5,97.42l-2.25,2.41h-2.6l3.92-4L21.49,92h2.36l1.24,2.3L27.27,92h2.51Zm13.83-.29H37.3v2.47H35.42V95.62H32.9V93.84h2.52V91.36H37.3v2.48h2.54ZM51,94.78a2.73,2.73,0,0,1,.71,1.93,3.06,3.06,0,0,1-.46,1.64,3.27,3.27,0,0,1-1.42,1.2,5.49,5.49,0,0,1-2.34.45,8,8,0,0,1-2.12-.28,5.55,5.55,0,0,1-1.77-.81l.92-1.81a4.51,4.51,0,0,0,1.35.68,5.18,5.18,0,0,0,1.56.24,2.48,2.48,0,0,0,1.4-.34,1.1,1.1,0,0,0,.51-1c0-.84-.64-1.25-1.91-1.25H46.37V93.9l2.1-2.38H44.13V89.63h7.14v1.53L49,93.78A3.47,3.47,0,0,1,51,94.78Zm12,.84H60.47v2.47H58.59V95.62H56.07V93.84h2.52V91.36h1.88v2.48H63Zm11-1.79a3,3,0,0,1,1.74,2.78,3.18,3.18,0,0,1-.51,1.79,3.44,3.44,0,0,1-1.39,1.19,4.65,4.65,0,0,1-2,.41,4.33,4.33,0,0,1-3.35-1.31A5.29,5.29,0,0,1,67.37,95,6.39,6.39,0,0,1,68,92a4.46,4.46,0,0,1,1.83-1.87,5.55,5.55,0,0,1,2.72-.65,6.17,6.17,0,0,1,1.56.19,4.28,4.28,0,0,1,1.28.51l-.88,1.74a3.32,3.32,0,0,0-1.9-.51,2.8,2.8,0,0,0-2.06.75,3.16,3.16,0,0,0-.81,2.2,3.41,3.41,0,0,1,2.52-.9A3.84,3.84,0,0,1,74.05,93.83Zm-1,4a1.4,1.4,0,0,0,.47-1.11A1.43,1.43,0,0,0,73,95.61a1.84,1.84,0,0,0-1.26-.42,1.89,1.89,0,0,0-1.27.43,1.48,1.48,0,0,0,0,2.2,1.94,1.94,0,0,0,1.32.42A1.84,1.84,0,0,0,73,97.83ZM79.89,92h6.93v1.78H79.89Zm0,3.62h6.93v1.77H79.89ZM93.3,99.37a4.13,4.13,0,0,1-1.55-1.81,7.46,7.46,0,0,1,0-5.67,4.19,4.19,0,0,1,1.55-1.81,4.37,4.37,0,0,1,4.52,0,4.26,4.26,0,0,1,1.55,1.81,7.46,7.46,0,0,1,0,5.67,4.2,4.2,0,0,1-1.55,1.81,4.37,4.37,0,0,1-4.52,0ZM97,97.2a4.47,4.47,0,0,0,.53-2.47A4.53,4.53,0,0,0,97,92.25a1.72,1.72,0,0,0-2.91,0,4.53,4.53,0,0,0-.53,2.48,4.47,4.47,0,0,0,.53,2.47,1.72,1.72,0,0,0,2.91,0ZM51.73,86.29H9.12L5.6,97.07l-2-6H.06v1.77H2l2.45,7H6.76l3.87-11.8h41.1ZM0,43.22V78.87H100V43.22ZM10.4,66.79a6.58,6.58,0,0,1-2.77.53A9.66,9.66,0,0,1,5.12,67,6.67,6.67,0,0,1,3,66l1.09-2.14a5.4,5.4,0,0,0,1.59.8A6.23,6.23,0,0,0,7.56,65a3,3,0,0,0,1.66-.41,1.3,1.3,0,0,0,.6-1.15c0-1-.75-1.48-2.26-1.48H6.28V60.09l2.49-2.81H3.62V55h8.46v1.82L9.35,60a4.17,4.17,0,0,1,2.44,1.18,3.29,3.29,0,0,1,.84,2.29,3.58,3.58,0,0,1-.55,1.94A3.85,3.85,0,0,1,10.4,66.79Zm12,.32H19.61l-1.52-2.84-2.68,2.84H12.34L17,62.35l-2.47-4.52h2.8l1.47,2.73,2.59-2.73h3l-4.48,4.64Zm15.24-2.84H29.48V62.16h8.21Zm0-4.28H29.48V57.88h8.21Zm17.68,4.59h-2v2.53H50.67V64.58h-6.5V62.7L49.86,55H52.8L47.51,62.3h3.25V60H53.4V62.3h2Zm14.32-2.45h-3v2.93H64.46V62.13h-3V60h3V57.09h2.23V60h3ZM83.2,66.78a6.49,6.49,0,0,1-2.79.54A9.66,9.66,0,0,1,77.9,67a6.78,6.78,0,0,1-2.1-1l1.11-2.14a5.46,5.46,0,0,0,1.58.8,6.11,6.11,0,0,0,1.85.29A2.89,2.89,0,0,0,82,64.56a1.33,1.33,0,0,0,.6-1.16A1.3,1.3,0,0,0,82,62.23a4.39,4.39,0,0,0-2.18-.4H76.7l.62-6.8h7.37v2.25h-5l-.19,2.29h1a5.78,5.78,0,0,1,3.77,1,3.36,3.36,0,0,1,1.22,2.73,3.8,3.8,0,0,1-.55,2A3.89,3.89,0,0,1,83.2,66.78Zm11.9.33H92.25l-1.52-2.84-2.67,2.84H85l4.65-4.76-2.47-4.52H90l1.47,2.73L94,57.83h3l-4.47,4.64Z"/></svg>
